packages/icons/themed-assets/autosave-fill-md.svg

<svg width="24" height="24" viewBox="0 0 24 24" fill="none" xmlns="http://www.w3.org/2000/svg">
    <path fill-rule="evenodd" clip-rule="evenodd" d="M7 20H17.5H18V19.9776C20.8032 19.725 23 17.369 23 14.5C23 11.9332 21.2417 9.77712 18.8639 9.17043C18.2503 6.21826 15.6342 4 12.5 4C9.78783 4 7.46364 5.6611 6.48927 8.02143C3.41461 8.28061 1 10.8583 1 14C1 17.3137 3.68629 20 7 20ZM11.3446 16.5394L16.5211 11.5394L15.4789 10.4606L10.8413 14.9401L8.53886 12.5617L7.46114 13.605L10.2847 16.5217C10.5725 16.819 11.0469 16.827 11.3446 16.5394Z" fill="#1D3F66"/>
</svg>

<svg width="24" height="24" viewBox="0 0 24 24" fill="none" xmlns="http://www.w3.org/2000/svg">
    <path fill-rule="evenodd" clip-rule="evenodd" d="M7 20h11v-.022a5.5 5.5 0 0 0 .864-10.808A6.502 6.502 0 0 0 6.489 8.021 6 6 0 0 0 7 20zm4.345-3.46 5.176-5-1.042-1.08-4.638 4.48-2.302-2.378-1.078 1.043 2.824 2.917a.75.75 0 0 0 1.06.017z" fill="#1D3F66"/>
</svg>
